X: 10870
T: Drocketty March, The
R: jig
M: 6/8
K: Gmajor
|:G2B A2c|G2B F2E|G2B A2c|BGE F2E:|
B>GE E>EE|BGE A2c|B>GE E>EE|cBG F2E|
B>GE E>EE|BGE F2E|BGE E>GB|eBG F2E||
EGB e2B|cBA B2G|EGB e2B|cBG F2E|
EGB e2B|cBA Bcd|e2c d2B|cBG F2E||

